X: 1108
T: Sweeney's Wheel
B: max new tunes
B: steve tunes
M:4/4
Q: 1/4=120
K:Bminor
V:1 
|:"Bm"B2dB FBdB|"G"GBdB "A"cBAc|"Bm"B2dB FBdB|"A"cBAB cdef:|
|:"A"gefe geae|"A"gefe "G"g2ef|"A"gefe gfed|"G"cdef g2ga:|
|:"Bm"baa2 "D"fafd|"G"cdef "A"g3a|"Bm"baa2 "D"fddB|"A"ABcd efga:|
|:"D"fdAd FdAd|"D"fdAd "A"cdeg|"D"fdAd FdAd|"A"cBAB cdeg:|
|:"D"d2fd adfd|"D"d2fd "A"cdec|"D"d2fd adfd|"A"cBAB cdec:|
% abcbook-tune_id 62b5b3cc3957753a4b5901f8


% abcbook-boost 11
% abcbook-tablature 
% abcbook-transpose 
% abcbook-lastupdated 1656222693352
% abcbook-soundfonts 
% abcbook-repeats 3


